svgs/regular/face-raised-eyebrow.svg

<svg xmlns="http://www.w3.org/2000/svg" viewBox="0 0 512 512"><!--! Font Awesome Pro 6.4.2 by @fontawesome - https://fontawesome.com License - https://fontawesome.com/license (Commercial License) Copyright 2023 Fonticons, Inc. --><path d="M256 48a208 208 0 1 0 0 416 208 208 0 1 0 0-416zM512 256A256 256 0 1 1 0 256a256 256 0 1 1 512 0zM144.4 240a32 32 0 1 1 64 0 32 32 0 1 1 -64 0zm192-32a32 32 0 1 1 0 64 32 32 0 1 1 0-64zM160 352c0-13.3 10.7-24 24-24H328c13.3 0 24 10.7 24 24s-10.7 24-24 24H184c-13.3 0-24-10.7-24-24zM328.8 141.8l-29.5 29.5c-6.2 6.2-16.4 6.2-22.6 0s-6.2-16.4 0-22.6l29.5-29.5c25-25 66.6-20.9 86.2 8.5l4.9 7.4c4.9 7.4 2.9 17.3-4.4 22.2s-17.3 2.9-22.2-4.4l-4.9-7.4c-8.4-12.6-26.2-14.4-36.9-3.7zM128 144h64c8.8 0 16 7.2 16 16s-7.2 16-16 16H128c-8.8 0-16-7.2-16-16s7.2-16 16-16z"/></svg>

<svg xmlns="http://www.w3.org/2000/svg" viewBox="0 0 512 512"><!--! Font Awesome Pro 6.1.1 by @fontawesome - https://fontawesome.com License - https://fontawesome.com/license (Commercial License) Copyright 2022 Fonticons, Inc. --><path d="M208.4 240C208.4 257.7 194 272 176.4 272C158.7 272 144.4 257.7 144.4 240C144.4 222.3 158.7 208 176.4 208C194 208 208.4 222.3 208.4 240zM304.4 240C304.4 222.3 318.7 208 336.4 208C354 208 368.4 222.3 368.4 240C368.4 257.7 354 272 336.4 272C318.7 272 304.4 257.7 304.4 240zM160 352C160 338.7 170.7 328 184 328H328C341.3 328 352 338.7 352 352C352 365.3 341.3 376 328 376H184C170.7 376 160 365.3 160 352zM299.3 171.3C293.1 177.6 282.9 177.6 276.7 171.3C270.4 165.1 270.4 154.9 276.7 148.7L306.2 119.2C331.2 94.2 372.8 98.32 392.4 127.7L397.3 135.1C402.2 142.5 400.2 152.4 392.9 157.3C385.5 162.2 375.6 160.2 370.7 152.9L365.8 145.5C357.4 132.9 339.5 131.1 328.8 141.8L299.3 171.3zM192 144C200.8 144 208 151.2 208 160C208 168.8 200.8 176 192 176H128C119.2 176 112 168.8 112 160C112 151.2 119.2 144 128 144H192zM0 256C0 114.6 114.6 0 256 0C397.4 0 512 114.6 512 256C512 397.4 397.4 512 256 512C114.6 512 0 397.4 0 256zM256 48C141.1 48 48 141.1 48 256C48 370.9 141.1 464 256 464C370.9 464 464 370.9 464 256C464 141.1 370.9 48 256 48z"/></svg>
